dist/assets/img/svg/srv-logo-03.svg

<svg width="118" height="120" viewBox="0 0 118 120" fill="none" xmlns="http://www.w3.org/2000/svg">
<g clip-path="url(#clip0_187_246)">
<path d="M76.6294 94.8981C75.4995 94.1537 73.4194 92.8189 72.007 91.9205C70.6202 91.022 67.9752 89.3022 66.1262 88.0958C64.3029 86.915 62.454 85.7086 62.0174 85.4519C61.6065 85.1695 59.6035 83.8861 57.5748 82.577C55.5717 81.2935 52.6442 79.4197 51.1034 78.4186C49.5626 77.4432 48.2786 76.5191 48.2786 76.3651C48.2786 76.2368 48.8178 75.7747 49.5112 75.3383C50.1789 74.9276 52.8496 73.1821 55.469 71.488C60.1428 68.4334 62.6337 66.7906 68.1293 63.2483C69.6444 62.2729 72.3408 60.5017 74.1641 59.3466C77.0403 57.4471 78.6581 56.4717 78.8892 56.4717C78.9406 56.4717 78.9406 58.8332 78.8892 61.7338L78.8122 66.9959H98.3547H117.872V76.3651V85.7343H98.3547H78.8122L78.8379 90.8937C78.8635 93.7173 78.8379 96.0788 78.7865 96.1302C78.7351 96.1815 77.7593 95.6425 76.6294 94.8981Z" fill="#E30000"/>
<path d="M99.382 41.5837V18.4816H59.0642H18.7465V26.439V34.3964H9.50164H0.256805V17.1982V0H59.0642H117.872V32.3428V64.6857H108.627H99.382V41.5837Z" fill="#E30000"/>
<path d="M0.179764 119.694C0.0770372 119.617 0 105.756 0 88.9428C0 63.1199 0.0513632 58.2941 0.35952 58.0374C0.61632 57.8321 3.18434 57.7551 9.65571 57.8064L18.6181 57.8834L18.6951 79.6507L18.7465 101.392L46.6864 101.418C62.0431 101.444 80.1475 101.444 86.9271 101.418L99.2535 101.367L99.4333 99.3901C99.536 98.312 99.5874 95.3344 99.5874 92.7932L99.5617 88.1728H108.781H118V103.959V119.746L59.1669 119.823C26.81 119.848 0.256801 119.797 0.179764 119.694Z" fill="#1B1C55"/>
<path d="M35.1817 60.707V55.4449L17.6679 55.3935L0.128387 55.3165V46.204V37.0916L17.6679 37.0146L35.1817 36.9632V31.7011C35.1817 27.6711 35.2587 26.439 35.5155 26.439C35.6696 26.439 37.1847 27.3374 38.8283 28.4411C42.4749 30.8283 48.3299 34.653 52.5158 37.3739C59.7319 42.0457 62.3769 43.7655 64.1232 44.8693C65.1504 45.5367 65.9978 46.127 65.9978 46.204C65.9978 46.281 64.38 47.3848 62.4026 48.6426C60.4252 49.926 56.4962 52.4673 53.6714 54.2898C50.8722 56.1379 47.4825 58.3198 46.1728 59.1668C44.8631 60.0139 41.9356 61.8877 39.7014 63.3252C37.4415 64.7883 35.5155 65.9691 35.3871 65.9691C35.2844 65.9691 35.1817 63.6076 35.1817 60.707Z" fill="#1B1C55"/>
</g>
<defs>
<clipPath id="clip0_187_246">
<rect width="118" height="120" fill="white"/>
</clipPath>
</defs>
</svg>

<svg width="118" height="120" fill="none" xmlns="http://www.w3.org/2000/svg"><g clip-path="url(#clip0_187_246)"><path d="M76.63 94.898c-1.13-.744-3.21-2.08-4.623-2.977-1.387-.899-4.032-2.619-5.88-3.825-1.824-1.181-3.673-2.387-4.11-2.644-.41-.282-2.414-1.566-4.442-2.875-2.003-1.284-4.93-3.157-6.472-4.158-1.54-.976-2.824-1.9-2.824-2.054 0-.128.539-.59 1.232-1.027.668-.41 3.339-2.156 5.958-3.85 4.674-3.055 7.165-4.697 12.66-8.24 1.515-.975 4.212-2.746 6.035-3.901 2.876-1.9 4.494-2.875 4.725-2.875.052 0 .052 2.361 0 5.262l-.077 5.262h39.06v18.738h-39.06l.026 5.16c.026 2.823 0 5.185-.051 5.236-.052.052-1.028-.487-2.158-1.232z" fill="#E30000"/><path d="M99.382 41.584V18.482H18.746v15.914H.258V0h117.614v64.686h-18.49V41.584z" fill="#E30000"/><path d="M.18 119.694C.077 119.617 0 105.756 0 88.943 0 63.12.051 58.294.36 58.037c.256-.205 2.824-.282 9.296-.23l8.962.076.077 21.768.052 21.741 27.94.026c15.356.026 33.46.026 40.24 0l12.326-.051.18-1.977c.103-1.078.154-4.056.154-6.597l-.025-4.62H118v31.573l-58.833.077c-32.357.025-58.91-.026-58.987-.129z" fill="#1B1C55"/><path d="M35.182 60.707v-5.262l-17.514-.051-17.54-.078V37.093l17.54-.077 17.514-.052v-5.262c0-4.03.077-5.262.334-5.262.154 0 1.669.898 3.312 2.002 3.647 2.387 9.502 6.212 13.688 8.933 7.216 4.672 9.86 6.392 11.607 7.495 1.027.668 1.875 1.258 1.875 1.335 0 .077-1.618 1.18-3.595 2.439a4752.292 4752.292 0 01-8.732 5.647c-2.799 1.848-6.188 4.03-7.498 4.877-1.31.847-4.237 2.72-6.472 4.158-2.26 1.463-4.185 2.644-4.314 2.644-.103 0-.205-2.361-.205-5.262z" fill="#1B1C55"/></g><defs><clipPath id="clip0_187_246"><path fill="#fff" d="M0 0h118v120H0z"/></clipPath></defs></svg>.0916L17.6679 37.0146L35.1817 36.9632V31.7011C35.1817 27.6711 35.2587 26.439 35.5155 26.439C35.6696 26.439 37.1847 27.3374 38.8283 28.4411C42.4749 30.8283 48.3299 34.653 52.5158 37.3739C59.7319 42.0457 62.3769 43.7655 64.1232 44.8693C65.1504 45.5367 65.9978 46.127 65.9978 46.204C65.9978 46.281 64.38 47.3848 62.4026 48.6426C60.4252 49.926 56.4962 52.4673 53.6714 54.2898C50.8722 56.1379 47.4825 58.3198 46.1728 59.1668C44.8631 60.0139 41.9356 61.8877 39.7014 63.3252C37.4415 64.7883 35.5155 65.9691 35.3871 65.9691C35.2844 65.9691 35.1817 63.6076 35.1817 60.707Z" fill="#1B1C55"/>
</g>
<defs>
<clipPath id="clip0_187_246">
<rect width="118" height="120" fill="white"/>
</clipPath>
</defs>
</svg>
